jsapp/svg-icons/audio.svg

<svg height="40" viewBox="0 0 40 40" width="40" xmlns="http://www.w3.org/2000/svg"><path d="m15.5157718 21.9966272h-3.5176657v-4h3.5176657l3.4757055-4.973.000999 13.949zm4.238982-10.848c.7502888.31 1.2348295 1.035 1.2348295 1.848v14c0 .812-.4845407 1.539-1.2348295 1.849-.2427699.1-.5005256.151-.7632765.151-.5664631 0-1.1089489-.224-1.524555-.72l-2.9921638-4.28h-2.4766524c-1.1019555 0-1.9981061-.897-1.9981061-2v-4c0-1.103.8961506-2 1.9981061-2h2.4766524l3.1040578-4.414c.5624668-.565 1.4376373-.739 2.1759375-.434zm3.2329356.848c3.8563447 0 6.9933712 3.141 6.9933712 7 0 3.86-3.1370265 7-6.9933712 7v-2c2.7543892 0 4.9952651-2.243 4.9952651-5s-2.2408759-5-4.9952651-5zm2.9971591 7c0 1.654-1.3447254 3-2.9971591 3v-2c.5504782 0 .999053-.448.999053-1 0-.551-.4485748-1-.999053-1v-2c1.6524337 0 2.9971591 1.346 2.9971591 3z" fill-rule="evenodd"/></svg>

<?xml version="1.0" encoding="UTF-8"?>
<svg width="40px" height="40px" viewBox="0 0 40 40" version="1.1" xmlns="http://www.w3.org/2000/svg" xmlns:xlink="http://www.w3.org/1999/xlink">
    <!-- Generator: Sketch 50.2 (55047) - http://www.bohemiancoding.com/sketch -->
    <title>Icons/audio</title>
    <desc>Created with Sketch.</desc>
    <defs>
        <path d="M15.5157718,21.9966272 L11.9981061,21.9966272 L11.9981061,17.9966272 L15.5157718,17.9966272 L18.9914773,13.0236272 L18.9924763,26.9726272 L15.5157718,21.9966272 Z M19.7547538,11.1486272 C20.5050426,11.4586272 20.9895833,12.1836272 20.9895833,12.9966272 L20.9895833,26.9966272 C20.9895833,27.8086272 20.5050426,28.5356272 19.7547538,28.8456272 C19.5119839,28.9456272 19.2542282,28.9966272 18.9914773,28.9966272 C18.4250142,28.9966272 17.8825284,28.7726272 17.4669223,28.2766272 L14.4747585,23.9966272 L11.9981061,23.9966272 C10.8961506,23.9966272 10,23.0996272 10,21.9966272 L10,17.9966272 C10,16.8936272 10.8961506,15.9966272 11.9981061,15.9966272 L14.4747585,15.9966272 L17.5788163,11.5826272 C18.1412831,11.0176272 19.0164536,10.8436272 19.7547538,11.1486272 Z M22.9876894,11.9966272 C26.8440341,11.9966272 29.9810606,15.1376272 29.9810606,18.9966272 C29.9810606,22.8566272 26.8440341,25.9966272 22.9876894,25.9966272 L22.9876894,23.9966272 C25.7420786,23.9966272 27.9829545,21.7536272 27.9829545,18.9966272 C27.9829545,16.2396272 25.7420786,13.9966272 22.9876894,13.9966272 L22.9876894,11.9966272 Z M25.9848485,18.9966272 C25.9848485,20.6506272 24.6401231,21.9966272 22.9876894,21.9966272 L22.9876894,19.9966272 C23.5381676,19.9966272 23.9867424,19.5486272 23.9867424,18.9966272 C23.9867424,18.4456272 23.5381676,17.9966272 22.9876894,17.9966272 L22.9876894,15.9966272 C24.6401231,15.9966272 25.9848485,17.3426272 25.9848485,18.9966272 Z" id="path-1"></path>
    </defs>
    <g id="Icons/audio" stroke="none" stroke-width="1" fill="none" fill-rule="evenodd">
        <mask id="mask-2" fill="white">
            <use xlink:href="#path-1"></use>
        </mask>
        <use id="Mask" fill="#000000" xlink:href="#path-1"></use>
    </g>
</svg>
